X: 105
T: For Ireland I Won't Say Her Name
B: begged borrowed and stolen
M:3/4
L:1/8
R: waltz
Q: 1/4=100
K:Gmaj
V:1 
GA | "G"B2D3D|"Am7"E2G3A|"G"B6-|B4GA|B2D3D|
"Em"E2G3B|"D"A6-|A4GA|"G"B2D3D|"C"E2c3A|
"G"B6-|B3GAG|"C"E2"D"D3D|"C"E2G3"D"A|"G,"G6-|G4Bc|
"G"d2B2BA|G3Bd2|"C"e6|"Em"g4e2|
"G"d2B2BA|"Em"G3ABG|"D"A6-|A4dc|"G"B2D3D|
"C"E2c3A|"G"B6-|B3GAG|"C"E2"D"D2D|"Am7"EG3"D"A2|"G,"G6-|G4||
% abcbook-tune_id 627e2b1fbdc320ef3fced614


% abcbook-boost 0
% abcbook-tablature 
% abcbook-transpose 
% abcbook-lastupdated 1652725431155
% abcbook-soundfonts 
% abcbook-repeats 3
% Rhythm Waltz
% Titles One title
% Transcriptions Only 1 transcription
% Movement Has lots of stepwise movement
% Movement Has some stepwise movement
% Mode major
% Key G
% Time_signature 3/4
% Has_accompaniment_chords Has chords

